src/pos-icons/nfc-variant-off.svg

<svg height="24" viewBox="0 0 24 24" width="24" xmlns="http://www.w3.org/2000/svg"><path d="m1.25 2.05 20.7 20.7-1.25 1.25-2-2h-14.7a2 2 0 0 1 -2-2v-14.7l-2-2zm2.56-.05h.19 16c1.11 0 2 .89 2 2v16 .19l-2-1.99v-14.2h-14.2zm2.19 7.3-2-2v12.7h12.7l-2-2h-8.7zm12 6.9-2-2v-6.2h-3v2.28c.6.34 1 .98 1 1.72v.19l-3-2.99v-1.2a2 2 0 0 1 2-2h5zm-10-.2h4.7l-4.7-4.7zm2-8h-.2l-2-2h2.2z"/></svg>

<?xml version="1.0" encoding="UTF-8"?><!DOCTYPE svg PUBLIC "-//W3C//DTD SVG 1.1//EN" "http://www.w3.org/Graphics/SVG/1.1/DTD/svg11.dtd"><svg xmlns="http://www.w3.org/2000/svg" xmlns:xlink="http://www.w3.org/1999/xlink" version="1.1" id="mdi-nfc-variant-off" width="24" height="24" viewBox="0 0 24 24"><path d="M1.25,2.05L21.95,22.75L20.7,24L18.7,22H4A2,2 0 0,1 2,20V5.3L0,3.3L1.25,2.05M3.81,2C3.87,2 3.94,2 4,2H20C21.11,2 22,2.89 22,4V20C22,20.06 22,20.13 22,20.19L20,18.2V4H5.8L3.81,2M6,9.3L4,7.3V20H16.7L14.7,18H6V9.3M18,16.2L16,14.2V8H13V10.28C13.6,10.62 14,11.26 14,12C14,12.06 14,12.13 14,12.19L11,9.2V8A2,2 0 0,1 13,6H18V16.2M8,16H12.7L8,11.3V16M10,8H9.8L7.8,6H10V8Z" /></svg>
